X:631
T:Reel 631
M:4/4
K:Gmaj
L:1/8
dc|BG (3GFG DG (3GFG |BGGd gfeg|BG (3GFG DG (3GFG |AGFG ABcA|BG (3GFG DG (3GFG |BGBd g2fg| (3agf ge dBcG|ABcA =fdc2||B| (3ABA  (3dcB cB (3cBA |Bd (3ddd a2fe|aA (3AAc f2fB||ABcB eBce:||2Ad (3ded c2|:dc||BGDG GGG2AG|Bdgf e2dB|AGAG A2Ac|dBcd ec:||2cBAG FAdc|BGAG FGAG|
